src/svgs/skyscrapers.svg

<svg xmlns="http://www.w3.org/2000/svg" viewBox="0 0 24 24" width="512" height="512" aria-labelledby="kiskyscrapers-desc kiskyscrapers-title"><title id="kiskyscrapers-title">Skyscrapers Icon</title><desc id="kiskyscrapers-desc">A picture depicting tall buildings.</desc><path d="M20 21V5l-4-2v3l2 1v1h-2v2h2v1h-2v2h2v1h-2v2h2v1h-2v2h2v1h-4V2H4v19H2v1h20v-1zM6 4h6v1H6zm0 3h6v1H6zm0 3h6v1H6zm0 3h6v1H6zm0 3h6v1H6zm0 3h6v1H6z"/></svg>

<svg xmlns="http://www.w3.org/2000/svg" viewBox="0 0 24 24"><path d="M20,21V5L16,3V6l2,1V8H16v2h2v1H16v2h2v1H16v2h2v1H16v2h2v1H14V2H4V21H2v1H22V21ZM6,4h6V5H6ZM6,7h6V8H6Zm0,3h6v1H6Zm0,3h6v1H6Zm0,3h6v1H6Zm0,3h6v1H6Z"/></svg>
